packages/core/src/svgs/flx.svg

<svg width="24" height="24" viewBox="0 0 24 24" fill="none" xmlns="http://www.w3.org/2000/svg">
<g clip-path="url(#clip0_31_10384)">
<path d="M0 0H24V24H0V0Z" fill="url(#paint0_linear_31_10384)"/>
<path fill-rule="evenodd" clip-rule="evenodd" d="M15.8572 3.85693H14.2114L13.4443 7.60265C13.1186 7.47408 12.7714 7.37979 12.4114 7.32836L12.8572 5.14265H10.1572L9.60002 7.85122C9.03206 8.16647 8.5391 8.60094 8.15499 9.12478C7.77087 9.64862 7.50473 10.2494 7.37483 10.8859C7.24493 11.5223 7.25436 12.1794 7.40248 12.8118C7.5506 13.4443 7.83388 14.0372 8.23287 14.5498L7.30287 19.0926C7.27619 19.2188 7.27788 19.3493 7.30783 19.4747C7.33778 19.6002 7.39524 19.7174 7.47604 19.8178C7.55684 19.9183 7.65897 19.9996 7.77504 20.0558C7.89111 20.112 8.01821 20.1416 8.14716 20.1426H9.78859L10.6114 16.1312C10.95 16.2212 11.3014 16.2726 11.67 16.2855L11.1429 18.8569H13.8429L14.5672 15.3255C15.4062 14.6682 15.9841 13.734 16.1977 12.6898C16.4112 11.6455 16.2465 10.5594 15.7329 9.62551L16.6972 4.91122C16.7246 4.78476 16.7234 4.65378 16.6938 4.52782C16.6642 4.40186 16.6069 4.28409 16.526 4.18309C16.4451 4.08209 16.3427 4.00041 16.2263 3.94398C16.1098 3.88756 15.9823 3.85782 15.8529 3.85693H15.8572ZM11.7857 13.7141C12.2972 13.7141 12.7878 13.5109 13.1494 13.1492C13.5111 12.7875 13.7143 12.297 13.7143 11.7855C13.7143 11.274 13.5111 10.7835 13.1494 10.4218C12.7878 10.0601 12.2972 9.85693 11.7857 9.85693C11.2742 9.85693 10.7837 10.0601 10.422 10.4218C10.0603 10.7835 9.85716 11.274 9.85716 11.7855C9.85716 12.297 10.0603 12.7875 10.422 13.1492C10.7837 13.5109 11.2742 13.7141 11.7857 13.7141Z" fill="white"/>
</g>
<defs>
<linearGradient id="paint0_linear_31_10384" x1="19.7143" y1="3" x2="3.85714" y2="22.5" gradientUnits="userSpaceOnUse">
<stop stop-color="#77D8FE"/>
<stop offset="1" stop-color="#4FDF9D"/>
</linearGradient>
<clipPath id="clip0_31_10384">
<rect width="24" height="24" fill="white"/>
</clipPath>
</defs>
</svg>

<svg xmlns="http://www.w3.org/2000/svg" width="24" height="24" fill="none" viewBox="0 0 24 24"><g clip-path="url(#a)"><path fill="url(#b)" d="M0 0h24v24H0z"/><path fill="#fff" fill-rule="evenodd" d="M15.857 3.857h-1.646l-.767 3.746a4.6 4.6 0 0 0-1.033-.275l.446-2.185h-2.7L9.6 7.85a4.5 4.5 0 0 0-1.367 6.699l-.93 4.543a.87.87 0 0 0 .844 1.05H9.79l.822-4.012q.507.136 1.059.154l-.527 2.572h2.7l.724-3.531a4.49 4.49 0 0 0 1.166-5.7l.964-4.715a.87.87 0 0 0-.844-1.054zm-4.071 9.857a1.928 1.928 0 1 0 0-3.857 1.928 1.928 0 0 0 0 3.857" clip-rule="evenodd"/></g><defs><linearGradient id="b" x1="19.714" x2="3.857" y1="3" y2="22.5" gradientUnits="userSpaceOnUse"><stop stop-color="#77D8FE"/><stop offset="1" stop-color="#4FDF9D"/></linearGradient><clipPath id="a"><path fill="#fff" d="M0 0h24v24H0z"/></clipPath></defs></svg>
